packages/core/src/svgs/nftx.svg

<svg width="24" height="24" viewBox="0 0 24 24" fill="none" xmlns="http://www.w3.org/2000/svg">
<g clip-path="url(#clip0_31_14865)">
<path d="M0 0H24V24H0V0Z" fill="url(#paint0_linear_31_14865)"/>
<path d="M9.35489 14.7958C9.48003 14.6218 9.59875 14.4564 9.74061 14.2956C8.03318 14.7238 6.85718 15.6199 6.85718 16.6571C6.85718 16.6961 6.85932 16.7342 6.86232 16.7728C7.02946 16.7064 7.20646 16.6271 7.39418 16.5315C8.52218 15.9551 8.96446 15.3392 9.35489 14.7958ZM11.1335 16.7029C11.4746 16.2272 11.7695 15.8171 12.6035 15.3915C13.4366 14.9659 13.929 14.9736 14.4995 14.9826C14.8817 14.9891 15.2936 14.9955 15.7963 14.8836C15.1835 14.5408 14.1763 14.2819 13.2857 14.1431L11.9289 15.1318L11.3117 14.5301C10.6689 14.9801 10.3397 15.4382 10.0406 15.8535C9.69903 16.3292 9.40418 16.7394 8.57061 17.1649C7.98603 17.4636 7.56946 17.5489 7.17561 17.5699C7.48632 17.9985 8.00918 18.3744 8.67861 18.6636C8.83461 18.6006 8.99875 18.5261 9.17146 18.4374C10.3003 17.8618 10.7426 17.2459 11.1335 16.7029ZM16.2986 15.4716C15.6467 15.4609 14.9079 15.4489 13.7799 16.0254C12.6519 16.6018 12.2096 17.2176 11.8192 17.7611C11.4776 18.2359 11.1827 18.6465 10.3492 19.0725C10.3124 19.0913 10.2754 19.1095 10.2382 19.1274C10.8194 19.2341 11.4091 19.2872 12 19.2859C12.1307 19.2859 12.2597 19.2834 12.387 19.2786C12.5957 19.0489 12.7582 18.8235 12.9116 18.6101C13.2527 18.1344 13.548 17.7238 14.3816 17.2986C15.2147 16.8726 15.7076 16.8808 16.2776 16.8898C16.5403 16.8941 16.8172 16.8984 17.1275 16.8649C17.1382 16.7964 17.1433 16.7269 17.1433 16.6579C17.1433 16.2319 16.9453 15.8304 16.5939 15.4746C16.4966 15.4746 16.3989 15.4729 16.2986 15.4716ZM14.0619 19.0656C15.4093 18.7639 16.4546 18.1755 16.9033 17.4512C16.518 17.5245 16.08 17.6651 15.558 17.9316C14.8307 18.3036 14.3885 18.6915 14.0619 19.0656Z" fill="white"/>
<path d="M12.0001 4.28564L6.21436 10.2856L12.0001 15.8571L17.7858 10.2856L12.0001 4.28564Z" fill="url(#paint1_linear_31_14865)"/>
<path opacity="0.5" d="M12.0001 10.2856H6.21436L12.0001 4.28564V10.2856Z" fill="url(#paint2_linear_31_14865)"/>
</g>
<defs>
<linearGradient id="paint0_linear_31_14865" x1="4.46486" y1="4.16229" x2="29.2059" y2="32.5787" gradientUnits="userSpaceOnUse">
<stop stop-color="#1A1E21"/>
<stop offset="1" stop-color="#06060A"/>
</linearGradient>
<linearGradient id="paint1_linear_31_14865" x1="14.7888" y1="7.34693" x2="9.30478" y2="12.7156" gradientUnits="userSpaceOnUse">
<stop offset="0.09" stop-color="#FF6D41"/>
<stop offset="0.5" stop-color="#FA297F"/>
<stop offset="1" stop-color="#FA297F"/>
</linearGradient>
<linearGradient id="paint2_linear_31_14865" x1="13.3012" y1="5.91164" x2="7.79493" y2="11.3022" gradientUnits="userSpaceOnUse">
<stop stop-color="#652CB4"/>
<stop offset="0.07" stop-color="#652CB4" stop-opacity="0.82"/>
<stop offset="0.19" stop-color="#652CB4" stop-opacity="0.53"/>
<stop offset="0.3" stop-color="#652CB4" stop-opacity="0.3"/>
<stop offset="0.4" stop-color="#652CB4" stop-opacity="0.14"/>
<stop offset="0.49" stop-color="#652CB4" stop-opacity="0.04"/>
<stop offset="0.55" stop-color="#652CB4" stop-opacity="0"/>
</linearGradient>
<clipPath id="clip0_31_14865">
<rect width="24" height="24" fill="white"/>
</clipPath>
</defs>
</svg>

<svg xmlns="http://www.w3.org/2000/svg" width="24" height="24" fill="none" viewBox="0 0 24 24"><g clip-path="url(#a)"><path fill="url(#b)" d="M0 0h24v24H0z"/><path fill="#fff" d="M9.355 14.796c.125-.174.244-.34.386-.5-1.708.428-2.884 1.324-2.884 2.361q0 .059.005.116a6 6 0 0 0 .532-.241c1.128-.577 1.57-1.193 1.96-1.736m1.778 1.907c.342-.476.637-.886 1.47-1.311.834-.426 1.326-.418 1.896-.41.383.007.795.014 1.297-.098-.612-.343-1.62-.602-2.51-.74l-1.357.988-.617-.602c-.643.45-.972.908-1.271 1.324-.342.475-.637.885-1.47 1.31-.585.3-1.002.385-1.395.406.31.428.833.804 1.503 1.094q.234-.094.492-.227c1.13-.575 1.572-1.191 1.963-1.734m5.166-1.231c-.652-.011-1.391-.023-2.52.553-1.127.577-1.57 1.193-1.96 1.736-.341.475-.636.886-1.47 1.312l-.11.054a9.6 9.6 0 0 0 2.148.152c.209-.23.371-.456.525-.669.34-.476.636-.886 1.47-1.311.833-.426 1.326-.418 1.896-.41.262.005.54.01.85-.024q.015-.104.015-.207c0-.426-.198-.828-.55-1.183zm-2.237 3.594c1.347-.302 2.393-.89 2.841-1.615a5 5 0 0 0-1.345.48c-.727.373-1.17.76-1.496 1.135"/><path fill="url(#c)" d="m12 4.286-5.786 6L12 15.857l5.786-5.571z"/><path fill="url(#d)" d="M12 10.286H6.214l5.786-6z" opacity=".5"/></g><defs><linearGradient id="b" x1="4.465" x2="29.206" y1="4.162" y2="32.579" gradientUnits="userSpaceOnUse"><stop stop-color="#1A1E21"/><stop offset="1" stop-color="#06060A"/></linearGradient><linearGradient id="c" x1="14.789" x2="9.305" y1="7.347" y2="12.716" gradientUnits="userSpaceOnUse"><stop offset=".09" stop-color="#FF6D41"/><stop offset=".5" stop-color="#FA297F"/><stop offset="1" stop-color="#FA297F"/></linearGradient><linearGradient id="d" x1="13.301" x2="7.795" y1="5.912" y2="11.302" gradientUnits="userSpaceOnUse"><stop stop-color="#652CB4"/><stop offset=".07" stop-color="#652CB4" stop-opacity=".82"/><stop offset=".19" stop-color="#652CB4" stop-opacity=".53"/><stop offset=".3" stop-color="#652CB4" stop-opacity=".3"/><stop offset=".4" stop-color="#652CB4" stop-opacity=".14"/><stop offset=".49" stop-color="#652CB4" stop-opacity=".04"/><stop offset=".55" stop-color="#652CB4" stop-opacity="0"/></linearGradient><clipPath id="a"><path fill="#fff" d="M0 0h24v24H0z"/></clipPath></defs></svg>
